X: 1
T: Till There Was You
M: C
L: 1/4
K: Eb
G/A/|"Ebmaj7"B3 G/A/|"Edim7"B3 G/A/|"Fm7"BAe>c|"Abm7"BA2"Db9"xE/F/|
"Ebmaj7"AG"Gm7"(3dd_d|"Fm7"c2"Bb7"(3DEF[1|"Gm7"B4-"Gb7"x2-|"Fm7"B3"Bb7"xG/A/:|
[2"Ebmaj7"E4"Abm6"x2|"Ebmaj7"zGBd||"Abmaj7"fe3E|"Adim7"DE(3ffe|
"Ebmaj7"cB2G|"C7"^cd2c|"Fm7"=c2"Gm7"BA|"Am7b5"GE2G|
"Fm7/Bb"F3c|"Bb7#5"^F3 G/A/||"Ebmaj7"B3 G/A/|"Edim7"B3 G/A/|
"Fm7"BAe>c|"Abm7"BA2"Db9"xE/F/|"Ebmaj7"AG"Gm7"(3Dd_d|"Fm7"c2"Bb7"(3DEF|
"Eb6"E4|"(Fm7"z4"Bb7)"x2|]
